X: 11111
T: Largo
C: Bossi
Q: "Largo"
B: "Man of Feeling", Gaetano Brandi, ed. v.1 p.111
F: http://archive.org/details/manoffeelingorge00rugg
Z: 2012 John Chambers <jc:trillian.mit.edu>
M: 3/4
L: 1/16
K: D
|:\
(a4 f2)zf{a/}g3e | d3f A4 z4 | g4 g2ze{g/}f3d | c3e A4 z4 |\
(a4 f2)zf{a/}g3e | e3f A4 d3f | B4 g3ec3e | (e4 d4) z4 :|
|:\
(e4 A2)zAf3A | (a4 g4) z3e | (gfef) (agfg) (^ga^ab) | (dcfe) {e/}(dcdB) (^GAdf) |\
(a4 f2)zf{a/}g3e | d3f A4 (d3f) | B4 g3ec3e | (e4 d4) z2 :|
%
%%center -

%%sep 2 1 500
%%sep 1 1 500

